build/category/ShowTableSolid.svg

<svg xmlns="http://www.w3.org/2000/svg" fill="none" viewBox="0 0 24 24" focusable="false"><path d="M0 0H24V24H0z"/><path fill="#74767B" fill-rule="evenodd" d="M3 7C3 5.34315 4.34315 4 6 4L18 4C19.6569 4 21 5.34315 21 7L21 7.65C21 8.0366 20.6866 8.35 20.3 8.35L3.7 8.35C3.3134 8.35 3 8.0366 3 7.65L3 7ZM7.85001 9.65L3.7 9.65C3.3134 9.65 3 9.9634 3 10.35L3 17C3 18.6569 4.34315 20 6 20L7.85001 20C8.23661 20 8.55001 19.6866 8.55001 19.3L8.55001 10.35C8.55001 9.9634 8.23661 9.65 7.85001 9.65ZM10.55 9.65L13.45 9.65C13.8366 9.65 14.15 9.9634 14.15 10.35L14.15 19.3C14.15 19.6866 13.8366 20 13.45 20L10.55 20C10.1634 20 9.85001 19.6866 9.85001 19.3L9.85001 10.35C9.85001 9.9634 10.1634 9.65 10.55 9.65ZM15.45 10.35L15.45 19.3C15.45 19.6866 15.7634 20 16.15 20L18 20C19.6569 20 21 18.6569 21 17L21 10.35C21 9.9634 20.6866 9.65 20.3 9.65L16.15 9.65C15.7634 9.65 15.45 9.9634 15.45 10.35Z"/></svg>

<svg xmlns="http://www.w3.org/2000/svg" fill="none" viewBox="0 0 24 24" focusable="false"><path fill="#74767B" fill-rule="evenodd" d="M3 7c0-1.66 1.34-3 3-3h12c1.65 0 3 1.34 3 3v.64c0 .39-.32.71-.71.71H3.7c-.39 0-.7-.32-.7-.71zm4.85 2.64H3.7c-.39 0-.7.32-.7.71V17c0 1.65 1.34 3 3 3h1.85c.38 0 .69-.32.69-.71v-8.94c0-.39-.31-.71-.69-.71m2.69 0h2.91c.38 0 .69.32.69.71v8.94c0 .39-.31.71-.69.71h-2.91c-.38 0-.69-.32-.69-.71v-8.94c0-.39.31-.71.69-.71m4.91.71v8.94c0 .39.31.71.69.71H18c1.65 0 3-1.35 3-3v-6.65c0-.39-.32-.71-.71-.71h-4.15c-.38 0-.69.32-.69.71"/></svg>
